tools/download-figma-icons/icons/outlined-large/magic-link.svg

<svg width="64" height="64" viewBox="0 0 64 64" fill="none" xmlns="http://www.w3.org/2000/svg">
<path d="M59.4814 63.973H4.49859C2.01937 63.973 0 61.9536 0 59.4744V23.5856C0 22.6259 0.569822 21.7562 1.44955 21.3663C2.32927 20.9764 3.34895 21.1464 4.06873 21.7862L32 47.1382L59.9313 21.7962C60.6411 21.1464 61.6707 20.9864 62.5505 21.3763C63.4302 21.7662 64 22.6359 64 23.5956V59.4844C64 61.9636 61.9806 63.983 59.5014 63.983L59.4814 63.973ZM2.99906 24.8752V59.4744C2.99906 60.3041 3.66885 60.9739 4.49859 60.9739H59.4814C60.3112 60.9739 60.9809 60.3041 60.9809 59.4744V24.8752L32.9997 50.2673C32.4299 50.7871 31.5601 50.7871 30.9803 50.2673L2.99906 24.8752Z" fill="black"/>
<path d="M9.99679 54.9759C9.59692 54.9759 9.18705 54.8159 8.89714 54.496C8.33731 53.8862 8.3773 52.9365 8.97711 52.3767L21.9731 40.3804C22.5829 39.8206 23.5326 39.8606 24.0924 40.4604C24.6522 41.0702 24.6122 42.0199 24.0124 42.5797L11.0165 54.576C10.7266 54.8459 10.3667 54.9759 9.99679 54.9759Z" fill="black"/>
<path d="M53.9831 54.9755C53.6232 54.9755 53.2533 54.8455 52.9634 54.5756L39.9675 42.5794C39.3577 42.0195 39.3177 41.0698 39.8875 40.46C40.4474 39.8502 41.3971 39.8202 42.0069 40.3801L55.0028 52.3763C55.6126 52.9361 55.6526 53.8858 55.0828 54.4957C54.7829 54.8156 54.383 54.9755 53.9831 54.9755Z" fill="black"/>
<path d="M41.1872 10.3496C40.8973 10.3496 40.5974 10.2596 40.3375 10.0797L31.9901 4.31147L23.6427 10.0797C22.9629 10.5495 22.0232 10.3796 21.5533 9.69978C21.0835 9.01999 21.2534 8.08029 21.9332 7.61043L31.1403 1.26242C31.6502 0.912527 32.33 0.912527 32.8498 1.26242L42.0469 7.62043C42.7267 8.09028 42.8967 9.02999 42.4268 9.70978C42.1369 10.1296 41.667 10.3596 41.1872 10.3596V10.3496Z" fill="black"/>
<path d="M1.99942 24.2453C1.51957 24.2453 1.04972 24.0153 0.759808 23.5855C0.299952 22.8957 0.479896 21.966 1.15968 21.5061L8.33744 16.6576C9.02723 16.1978 9.95693 16.3777 10.4168 17.0575C10.8766 17.7473 10.6967 18.677 10.0169 19.1369L2.83916 23.9853C2.57924 24.1553 2.28933 24.2453 1.99942 24.2453Z" fill="black"/>
<path d="M61.9806 24.2454C61.6907 24.2454 61.4008 24.1654 61.1409 23.9855L54.463 19.4769C53.7732 19.017 53.5933 18.0773 54.0631 17.3976C54.523 16.7078 55.4627 16.5278 56.1425 16.9977L62.8204 21.5063C63.5102 21.9661 63.6901 22.9058 63.2202 23.5856C62.9303 24.0155 62.4605 24.2454 61.9806 24.2454Z" fill="black"/>
<path d="M10.6767 28.1742H7.67761V11.1596C7.67761 9.23015 9.24712 7.66064 11.1765 7.66064H53.3034C55.2327 7.66064 56.8023 9.23015 56.8023 11.1596V28.0543H53.8032V11.1596C53.8032 10.8796 53.5833 10.6597 53.3034 10.6597H11.1765C10.9066 10.6597 10.6767 10.8896 10.6767 11.1596V28.1742Z" fill="black"/>
<path d="M15.5651 25.395L16.9746 23.4756L14.7053 22.7359L15.2152 21.1663L17.4845 21.9061V19.5269H19.1339V21.9061L21.3932 21.1563L21.9031 22.7259L19.6438 23.4756L21.0533 25.395L19.7238 26.3547L18.3142 24.4553L16.8946 26.3547L15.5651 25.395Z" fill="black"/>
<path d="M24.3924 25.395L25.802 23.4756L23.5327 22.7359L24.0426 21.1663L26.3118 21.9061V19.5269H27.9613V21.9061L30.2206 21.1563L30.7305 22.7259L28.4712 23.4756L29.8807 25.395L28.5511 26.3547L27.1416 24.4553L25.722 26.3547L24.3924 25.395Z" fill="black"/>
<path d="M33.2196 25.395L34.6292 23.4756L32.3599 22.7359L32.8697 21.1663L35.139 21.9061V19.5269H36.7885V21.9061L39.0478 21.1563L39.5576 22.7259L37.2983 23.4756L38.7079 25.395L37.3783 26.3547L35.9687 24.4553L34.5492 26.3547L33.2196 25.395Z" fill="black"/>
<path d="M42.0469 25.395L43.4564 23.4756L41.1871 22.7359L41.697 21.1663L43.9663 21.9061V19.5269H45.6158V21.9061L47.875 21.1563L48.3849 22.7259L46.1256 23.4756L47.5351 25.395L46.2056 26.3547L44.796 24.4553L43.3665 26.3547L42.0369 25.395H42.0469Z" fill="black"/>
</svg>

<svg width="64" height="64" viewBox="0 0 64 64" fill="none" xmlns="http://www.w3.org/2000/svg"><path d="M59.481 63.973H4.5A4.505 4.505 0 0 1 0 59.474V23.586c0-.96.57-1.83 1.45-2.22.88-.39 1.899-.22 2.619.42L32 47.138l27.931-25.342c.71-.65 1.74-.81 2.62-.42.88.39 1.449 1.26 1.449 2.22v35.888c0 2.48-2.02 4.499-4.499 4.499l-.02-.01ZM3 24.875v34.6c0 .83.67 1.499 1.5 1.499h54.98c.83 0 1.5-.67 1.5-1.5V24.875L33 50.267c-.57.52-1.44.52-2.02 0L3 24.875Z" fill="currentColor"/><path d="M9.997 54.976c-.4 0-.81-.16-1.1-.48a1.51 1.51 0 0 1 .08-2.12L21.973 40.38a1.51 1.51 0 0 1 2.12.08c.56.61.52 1.56-.08 2.12L11.015 54.576c-.29.27-.65.4-1.02.4Zm43.986-.001c-.36 0-.73-.13-1.02-.4L39.968 42.58a1.49 1.49 0 0 1-.08-2.119 1.5 1.5 0 0 1 2.119-.08l12.996 11.996c.61.56.65 1.51.08 2.12-.3.32-.7.48-1.1.48ZM41.187 10.35a1.5 1.5 0 0 1-.85-.27L31.99 4.31l-8.347 5.769c-.68.47-1.62.3-2.09-.38-.47-.68-.3-1.62.38-2.09l9.207-6.348c.51-.35 1.19-.35 1.71 0l9.197 6.358a1.505 1.505 0 0 1-.86 2.74v-.01ZM2 24.245c-.48 0-.95-.23-1.24-.66-.46-.69-.28-1.619.4-2.079l7.177-4.848c.69-.46 1.62-.28 2.08.4.46.69.28 1.619-.4 2.079l-7.178 4.848c-.26.17-.55.26-.84.26Zm59.98 0c-.29 0-.58-.08-.84-.26l-6.677-4.508c-.69-.46-.87-1.4-.4-2.08.46-.69 1.4-.87 2.08-.4l6.677 4.51c.69.46.87 1.399.4 2.079-.29.43-.76.66-1.24.66Z" fill="currentColor"/><path d="M10.677 28.174h-3V11.16c0-1.93 1.57-3.5 3.5-3.5h42.126c1.93 0 3.5 1.57 3.5 3.5v16.894h-3V11.16c0-.28-.22-.5-.5-.5H11.176c-.27 0-.5.23-.5.5v17.014Z" fill="currentColor"/><path d="m15.565 25.395 1.41-1.92-2.27-.74.51-1.569 2.27.74v-2.38h1.649v2.38l2.26-.75.51 1.57-2.26.75 1.41 1.919-1.33.96-1.41-1.9-1.42 1.9-1.329-.96Zm8.827 0 1.41-1.92-2.27-.74.51-1.569 2.27.74v-2.38h1.65v2.38l2.259-.75.51 1.57-2.26.75 1.41 1.919-1.33.96-1.41-1.9-1.419 1.9-1.33-.96Zm8.828 0 1.41-1.92-2.27-.74.51-1.569 2.269.74v-2.38h1.65v2.38l2.259-.75.51 1.57-2.26.75 1.41 1.919-1.33.96-1.41-1.9-1.419 1.9-1.33-.96Zm8.827 0 1.41-1.92-2.27-.74.51-1.569 2.27.74v-2.38h1.649v2.38l2.259-.75.51 1.57-2.26.75 1.41 1.919-1.33.96-1.409-1.9-1.43 1.9-1.33-.96h.01Z" fill="currentColor"/></svg>
